X:15673
T:Soi de Pravia (Arrg.)
C:Trad
M:3/4
L:1/4
Q:1/4=150
K:Am
|: "Am"A,2 C|"Am"E2 F|"Dm"A2 G|"Am"F G/F/ E-|"Am"E z2 :|
|"C"G2 A|"C"G2 A|"G"G2 E|"C"D E/D/ C-|"C"C z2|
|"Am"E2 F|"Am"E2 F|"E"E2 D|"Am"B, C/B,/ A,-|"Am"A, z2|
